**kern	**kern	**dynam
*part1	*part1	*part1
*staff2	*staff1	*
*I"Piano	*	*
*clefF4	*clefG2	*
*k[f#c#g#d#]	*k[f#c#g#d#]	*
*M2/2	*M2/2	*
*met(c|)	*met(c|)	*
=1	=1	=1
2ryy	2b	p
=	=	=
*	*^	*
4r	2.b	2g#	.
(4E	.	.	.
*	*v	*v	*
4e	.	.
*	*^	*
4d#	4b	(4f#	.
=	=	=	=
4c#	2.ee	4e	.
4B	.	4dd#	.
4A	.	4cc#	.
4G#)	4ee	4b)	.
=	=	=	=
(4F#	(2ee	2.a	.
2f#	.	.	.
.	4dd#	.	.
4e	4cc#)	4a	.
=	=	=	=
4d#	2.b	2.a	.
4c#	.	.	.
4B	.	.	.
4A)	4b	4d#	.
=	=	=	=
(4G#	(2b	4e	.
!	!LO:TX:b:i:t=cresc.	!	!
4E	.	4g#	.
4C#	4a	4e	.
4AA	4cc#	4e	.
=	=	=	=
2BB	2e 2g#	(4e	.
.	.	2B	.
2BBB)	4.f# 4.a	.	.
.	.	4A)	.
.	8d#) 8f#	.	.
*	*v	*v	*
=	=	=
*^	*	*
(4EE	1EE	1A 1d# 1f#	p
4BB	.	.	.
4E	.	.	.
4BB)	.	.	.
*v	*v	*	*
=	=	=
*-	*-	*-
!!!system-decoration: {(s1,s2)}
